remix/Device/hard-drive-2-fill.svg

<svg viewBox="0 0 24 24" fill="currentColor" xmlns="http://www.w3.org/2000/svg"><path d="M21 3V21C21 21.5523 20.5523 22 20 22H4C3.44772 22 3 21.5523 3 21V3C3 2.44772 3.44772 2 4 2H20C20.5523 2 21 2.44772 21 3ZM5 16V20H19V16H5ZM15 17H17V19H15V17Z"/></svg>

<svg viewBox="0 0 24 24" xmlns="http://www.w3.org/2000/svg"><path fill="none" d="M0 0h24v24H0Z"/><path d="M21 3v18 0c0 .55-.45 1-1 1H4v0c-.56 0-1-.45-1-1V3v0c0-.56.44-1 1-1h16v0c.55 0 1 .44 1 1ZM5 16v4h14v-4H5Zm10 1h2v2h-2v-2Z"/></svg>
